X: 67
T: REELS: Tune for the Girls Set
T: Tune for the Girls
C: C: Liz Carroll / Maurice Lennon; S: Liz Carroll / Sergey Kuvin; Stockton's Wing
C: Set Leaders: Oliushka, Anton
Z: [Unedited], Oleg Naumov arr.; Bleedin' Heart / Yoann at The Session
N: https://thesession.org/members/26966/sets/95966
R: Reel
M: 4/4
L: 1/8
Q: 1/2=100
K: Amix
|:"A5"CA,CD E3D|CEFG EDCA,|"D"DA,D2 "G"G3(G|G)DAD "Em"FGED|
"A5"CA,CD E3D|CEGF EDCA,|"D"DFAF "G"G3(G|G2)ED "Em"CA,A,2:||
|:"A"cABG A3G|EA (3AAA EAAd|cABG A3G|"D"ED (3DDD "G"EDCD|
[1 "A"cABG A3c|AGED CA,B,C|"D"DFAD "G"G3(G|G2)ED "Em"CA,A,2:||
[2 "A"EAAA c3B|A3G E3C|"D"DFAD "G"G3(G|G2)ED "Em"CA,A,2||
"A"A,EAd "A"c2A,E|Ac"G"B2 G,B,DB,|"G"A,EAd "Em"cAB2|"(D)"G,B,DG "G"BGDB,|
"A"A,EAd "A"c2A,E|Ac"G"B2 G,B,DB,|"G"A,EAd "Em"cAB2|G,B,DG "(D)"E3D||
T: Golden Stud
K: Emin
|:"Em"E2 EG F2 FA|G2GB ABcA|BAGB AGFA|GEFD "D"EDB,D|
"Em"E2 EG F2 FA|G2 GB ABcA|"G"BAGB AGFA|1 "D"GEFD E2ED:|2 "D"GEFD EFGB||
|:"C"c2cB cBAc|"G/B"B2BA BAGB|"D"A2AB AGFA|GEFD EFGB|
"C"c2cB cBAc|"G/B"B2BA BAGB|"D"A2AB AGFA|1 GEFD E4:|2 GEFD E2ED||

